X:15
T:Out on the Ocean
A:Ireland
S:Sessions
R:Jig
M:6/8
L:1/8
K:G
~B3 BAG | BdB A2 B|GED G2A | BAB GED |
BAB BAG |BdB A2B | GED G2A | BGG G3 :|
ege edB | ege edB | ded dBA | ded dBA | 
G2A B2d | ege dBA | GED G2A | BGG G3 |
ege edB | ege edB | ded def | gfe dBA |
G2A B2d | ege dBA | GED G2A | BGG G3 ||
